_assets/images/icon-twitter.svg

<svg fill="none" height="24" viewBox="0 0 30 24" width="30" xmlns="http://www.w3.org/2000/svg"><path d="m9.26287 24.0081c11.11493 0 17.19443-9.2344 17.19443-17.24231 0-.26229 0-.52339-.0177-.78331 1.1827-.85785 2.2036-1.92002 3.0149-3.13679-1.1029.49008-2.2729.81147-3.4709.95344 1.2616-.75733 2.2057-1.9485 2.6568-3.351805-1.1862.705875-2.484 1.203335-3.8373 1.470925-.9112-.971539-2.1162-1.614865-3.4287-1.8304289-1.3125-.2155641-2.6592.008652-3.8318.6379509-1.1726.629298-2.1057 1.628598-2.6549 2.843258s-.6838 2.57696-.3831 3.8761c-2.4026-.12078-4.75303-.74688-6.89868-1.83766-2.14566-1.09077-4.03858-2.62184-5.55588-4.4938-.77278 1.33406-1.00947 2.91332-.66187 4.41624.34759 1.50291 1.25334 2.81647 2.53282 3.67324-.9617-.02859-1.90244-.28874-2.74281-.7585v.07679c.00038 1.39911.48336 2.75506 1.36703 3.83776.88366 1.0827 2.11359 1.8256 3.48119 2.1026-.88968.2433-1.82314.2789-2.72867.104.38616 1.2041 1.13797 2.2571 2.15027 3.0116 1.0123.7546 2.23447 1.173 3.49558 1.1968-2.13989 1.6864-4.78335 2.6019-7.50502 2.5992-.480812-.0009-.961156-.0301-1.43856-.0874 2.76359 1.7784 5.97917 2.7217 9.26287 2.7173" fill="#fff"/></svg>

<svg width="30" height="24" viewBox="0 0 30 24" fill="none" xmlns="http://www.w3.org/2000/svg">
<path d="M9.26287 24.0081C20.3778 24.0081 26.4573 14.7737 26.4573 6.76579C26.4573 6.5035 26.4573 6.2424 26.4396 5.98248C27.6223 5.12463 28.6432 4.06246 29.4545 2.84569C28.3516 3.33577 27.1816 3.65716 25.9836 3.79913C27.2452 3.0418 28.1893 1.85063 28.6404 0.447325C27.4542 1.1532 26.1564 1.65066 24.8031 1.91825C23.8919 0.946711 22.6869 0.303385 21.3744 0.0878211C20.0619 -0.127743 18.7152 0.0964731 17.5426 0.725772C16.37 1.35507 15.4369 2.35437 14.8877 3.56903C14.3385 4.78369 14.2039 6.14599 14.5046 7.44513C12.102 7.32435 9.75157 6.69825 7.60592 5.60747C5.46026 4.5167 3.56734 2.98563 2.05004 1.11367C1.27726 2.44773 1.04057 4.02699 1.38817 5.52991C1.73576 7.03282 2.64151 8.34638 3.92099 9.20315C2.95929 9.17456 2.01855 8.91441 1.17818 8.44465C1.17818 8.46946 1.17818 8.49545 1.17818 8.52144C1.17856 9.92055 1.66154 11.2765 2.54521 12.3592C3.42887 13.4419 4.6588 14.1848 6.0264 14.4618C5.13672 14.7051 4.20326 14.7407 3.29773 14.5658C3.68389 15.7699 4.4357 16.8229 5.448 17.5774C6.4603 18.332 7.68247 18.7504 8.94358 18.7742C6.80369 20.4606 4.16023 21.3761 1.43856 21.3734C0.957748 21.3725 0.477404 21.3433 0 21.286C2.76359 23.0644 5.97917 24.0077 9.26287 24.0033" fill="white"/>
</svg>
